polaris-icons/icons/newicons/LocationMajor.svg

<svg width="20" height="20" viewBox="0 0 20 20" fill="none" xmlns="http://www.w3.org/2000/svg">
<path fill-rule="evenodd" clip-rule="evenodd" d="M12.5 7.75C12.5 9.13071 11.3807 10.25 10 10.25C8.61929 10.25 7.5 9.13071 7.5 7.75C7.5 6.36929 8.61929 5.25 10 5.25C11.3807 5.25 12.5 6.36929 12.5 7.75ZM11 7.75C11 8.30228 10.5523 8.75 10 8.75C9.44772 8.75 9 8.30228 9 7.75C9 7.19772 9.44772 6.75 10 6.75C10.5523 6.75 11 7.19772 11 7.75Z" fill="black"/>
<path fill-rule="evenodd" clip-rule="evenodd" d="M16 8C16 14 11 18 10 18C9 18 4 14 4 8C4 4.68629 6.68629 2 10 2C13.3137 2 16 4.68629 16 8ZM14.5 8C14.5 10.5743 13.426 12.7572 12.1955 14.3233C11.5822 15.1038 10.9517 15.7024 10.4448 16.0923C10.2705 16.2264 10.1206 16.3283 10 16.4018C9.8794 16.3283 9.72948 16.2264 9.55519 16.0923C9.04827 15.7024 8.41777 15.1038 7.80448 14.3233C6.57403 12.7572 5.5 10.5743 5.5 8C5.5 5.51472 7.51472 3.5 10 3.5C12.4853 3.5 14.5 5.51472 14.5 8ZM9.74335 16.5358C9.74335 16.5358 9.74846 16.5335 9.75805 16.5306C9.74804 16.5346 9.74335 16.5358 9.74335 16.5358ZM10.242 16.5306C10.2515 16.5335 10.2566 16.5358 10.2566 16.5358C10.2566 16.5358 10.252 16.5346 10.242 16.5306Z" fill="black"/>
</svg>

<svg viewBox="0 0 20 20" fill="none" xmlns="http://www.w3.org/2000/svg"><path fill-rule="evenodd" clip-rule="evenodd" d="M12.5 7.75a2.5 2.5 0 1 1-5 0 2.5 2.5 0 0 1 5 0Zm-1.5 0a1 1 0 1 1-2 0 1 1 0 0 1 2 0Z" fill="#5C5F62"/><path fill-rule="evenodd" clip-rule="evenodd" d="M16 8c0 6-5 10-6 10s-6-4-6-10a6 6 0 1 1 12 0Zm-1.5 0c0 2.574-1.074 4.757-2.305 6.323a10.29 10.29 0 0 1-1.75 1.77 5.075 5.075 0 0 1-.445.309 5.073 5.073 0 0 1-.445-.31 10.29 10.29 0 0 1-1.75-1.769c-1.231-1.566-2.305-3.749-2.305-6.323a4.5 4.5 0 0 1 9 0Zm-4.757 8.536s.005-.003.015-.005a.137.137 0 0 1-.015.005Zm.499-.005.015.005-.015-.005Z" fill="#5C5F62"/></svg>
